X:1754
T:Bonny Charlie. HSJJ.160
T:King of the Fairies. HSJJ.160
T:King William of Orange. HSJJ.160
M:4/4
L:1/8
Q:150
S:HSJ Jackson,Wyresdale,Lancs.1823
R:Air
O:England
A:Lancashire
H:1823
Z:Chris Partington.
K:G
E2EFG2GA|BcBAG2GA|B2E2E2G2|FGAFD4|E2EFG2GA|BcBAG2GA|!
B2E2GFED|E4e4:||:efedB2B2|efedB4|fgafd2g2|fgafd2ga|!
b2gba2fa|g2egf2df|e2ef gfed|e2ef"hold"g4|efedB2B2|g2abd4|!
dcBA cBAG|FGAFD4|GFGA BABd|edef gfed|dcBA BAGF|E4e4:|]
